X:1
T:Title
%%score ( 1 2 ) { 3 | 4 }
L:1/8
Q:1/4=105
M:4/4
K:G
V:1 treble nm="Grand Piano, Soprano"
V:2 treble 
V:3 treble nm="Choir Pad, Naples, 76.76 D"
V:4 bass 
V:1
 z4 .d2 .A2 | [EG]2 [CE]2 [DG]4 | [FA]2 [FA]2 [GB]2 [GA]G | [FA]4 [Fd]4 | [GB]2 [GB]2 dcF-[FB] | %5
 [EG]2 E2 [DG]4 | [DF][^CG] [DA]2 [DB][G^c] [Fd]2 | [Ge]4 [Fd]4 | [Bd]2 [ce]2 [Ac][GB] [FA]2 | %9
 [DF]2 [FB]2 [EG]4 | z4 .A2 .E2 | [GB]4 [FA]4 | [GB]2 [GB]2 dcF-[FB] | [EG]2 E2 [DG]4 | z2 .G2 z4 | %15
 G2 z2 z4 | z8 |] %17
V:2
 [GB]2 [GB]2 A-[Ac]F-[FB] | x8 | x8 | x8 | z4 A2 .A2 | x8 | x8 | x8 | x8 | x8 | %10
 [CE][DF] [DG]2 E-[EB]c-[Ac] | x8 | z4 A2 .A2 | x8 | [CE][DF]D-[DA] [DB]2 [Ec]2 | %15
 A2- [FA]2 [DG]4- | [DG]4 z4 |] %17
V:3
 D2 D2 D2 C2 | B,2 C2 B,4 | D2 D2 D2 ^C2 | D4 A,2 D2 | D2 D2 D2 C2 | B,2 C2 B,4 | A,2 D2 DA, A,2 | %7
 ^C4 A,4 | D2 D2 D2 D2 | C2[K:bass] B,2 B,4 | CA, G,2 G,^G,A,[K:treble]E | D4 D4 | D2 D2 D2 C2 | %13
 B,2 C2 B,4 | G,A,G,F, G,2 G,2 | C4 B,4- | B,4 z4 |] %17
V:4
 G,2 G,2 G,2 D,2 | E,2 C,2 G,,4 | D,2 D,2 G,2 E,2 | D,4 D,4 | G,2 G,2 F,2 D,2 | E,2 C,2 G,,4 | %6
 D,E, F,2 G,E, D,2 | A,,4 D,4 | D,2 D,2 D,2 D,2 | D,2 ^D,2 E,4 | C,2 B,,2 C,B,, A,,2 | D,4 D,4 | %12
 G,2 G,2 F,2 D,2 | E,2 C,2 G,,4 | C,2 B,,D, z2 C,2 | D,4 G,,4- | G,,4 z4 |] %17

